X: 5230
T: Broken Chanter, The
R: jig
M: 6/8
K: Adorian
|:B2A AAA|B2G GGG|B2A AAA|e2A ged|
B2A AAA|B2G GGG|e2g d2g|B2g dBG:|
|:g3 f3|efe d3|g3 f3|efg afd|
g3 f3|efe d3|e2g d2g|B2g dBG:|
|:B2A AAA|eA/A/A e2d|eA/A/A efg|B2G GGG|
B2A AAA|eA/A/A e2d|BGG dBB|BAA A2a:|
|:BA/A/A eA/A/A|BA/A/A eA/A/A|BGG dBB|eA/A/A dBB|
[1BA/A/A eA/A/A|BA/A/A eA/A/A|BGG dBB|BAA A2a:|
[2B2A AAA|eA/A/A e2d|BGG dBB|BAA A3||

